X:1
T:Title
%%score { ( 1 3 ) | ( 2 4 ) }
L:1/8
Q:1/4=100
M:4/4
K:C
V:1 treble nm="Grand Piano"
V:3 treble 
V:2 bass 
V:4 bass 
V:1
 C2 C2 E2 E2 | G4 G4 | [CEG]2 [CEG]2 [G,CE]2 [G,DG]2 | [Cc]8 | [Ec]2 [Ec]2 [Ec]2 [Ec]2 | B4 B4 | %6
w: Ira~D.~Sankey * * *||||||
 A2 c2 B2 A2 | [EG]8 | [Ec]2 [EG]2 [EG]2 [E^G]2 | [FA]4 [GA]4 | [^Fd]2 [FA]2 [GB]2 [Ac]2 | B8 | %12
w: ||||||
 c2 G2 A2 [GB]2 | [Gc]4 [Ec]4 | [Ge]2 d2 c2 [DB]2 | [Ec]8 | d2 d2 d2 e2 | [Af]4 [Af]4 | %18
w: ||||||
 c2 c2 c2 [Ad]2 | [^Ge]8 | [Ad]2 [Ac]2 [GB]2 [FA]2 | [EG]2 [Gc]2 [Ec]2 [Ad]2 | [Ge]4 [Fd]4 | %23
w: |||||
 [Ec]8 |] %24
w: |
V:2
 C,2 C,2 E,2 E,2 | G,4 G,4 | C,2 C,2 C,2 B,,2 | [A,,E,]8 | [A,,A,]2 [A,,A,]2 [A,,A,]2 [C,A,]2 | %5
 [E,^G,E]4 [E,G,D]4 | [F,A,C]2 [F,A,C]2 [F,B,F]2 [F,CF]2 | [C,C]8 | [C,G,]2 [C,C]2 [C,C]2 [C,C]2 | %9
 [F,C]4 [E,^C]4 | [D,D]2 [D,D]2 [D,D]2 [D,D]2 | G4 z4 | [A,CE]2 [E,C]2 [F,CF]2 [F,D]2 | %13
 [E,C]4 [A,C]4 | [F,A,]2 [F,A,F]2 [G,E]2 [G,,G,]2 | [C,G,]8 | [G,B,G]2 [G,B,G]2 [G,B,G]2 [C_B]2 | %17
 [F,C]4 [F,C]4 | [A,CE]2 [A,CE]2 [A,EA]2[K:bass] [F,A,]2 | [E,B,]8 | [F,A,]2 [F,C]2 [F,C]2 [F,C]2 | %21
 [C,C]2 [E,C]2 [A,C]2 [F,C]2 | [G,C]4 [G,,B,]4 | [C,C]8 |] %24
V:3
 x8 | x8 | x8 | x8 | x8 | x8 | x8 | x8 | x8 | x8 | x8 | z4 F4 | x8 | x8 | x8 | x8 | x8 | x8 | x8 | %19
 x8 | x8 | x8 | x8 | x8 |] %24
V:4
 x8 | x8 | x8 | x8 | x8 | x8 | x8 | x8 | x8 | x8 | x8 | [G,D]8 | x8 | x8 | x8 | x8 | x8 | x8 | %18
 x6[K:bass] x2 | x8 | x8 | x8 | x8 | x8 |] %24

